!!!COM: Hugo Wolf
!!!CNT: Deutscher
!!!TXO: Deutsche 
!!!OTL: Storchenbotschaft
!!!ONM: No. 48
!!!ODT: 1888/
!!!LYR: Moericke
!!!ENC: Brian Bice
!!!YOR: 65 Songs for voice and piano, International Music Company, 1960
!!NB: Vocal melody and text only encoded.
**kern	**silbe
*clefG2	*
*k[b-e-]	*
*M12/8	*
=1	=1
2.r	.
4r	.
8r	.
4r	.
{8d	{Des
=2	=2
8d	Scha2-
8b-	-fers
8a	sein
8b-	Haus
16r	.
16d	und
8d	das
8d	steht
8b-	auf
8a	zwei
4b-}	Rad,}
{8d	{steht
=3	=3
8e-	hoch
8cc	auf
8bn	der
8.cc	Hei-
16e-	-den,
8dn	so
8e-	fru2-
8cc	-he,
8bn	wie
4cc}	spat;}
{8cc	{und
=4	=4
8cc	wenn
8a	nur
8cc	ein
8cc	man-
8a	-cher
8cc	so'n
8b-	Nacht-
8cc	-quar-
8dd	-tier
4ee-}	ha2tt!}
{8ee-	{Ein
=5	=5
8ee-	Scha2-
8cc	-fer
8ee-	tauscht
8dd	nicht
8g	mit
8b-	dem
8an	Ko2-
8cc	-nig
8f#	sein'
4.g}	Bett.}
=6	=6
2.r	.
4r	.
8r	.
4r	.
{8d	{Und
=7	=7
8d	ka2m'
8b-	ihm
8a	zur
8.b-	Nacht
16d	auch
8d	was
8d	Selt-
8b-	-sa-
8a	-mes
4b-}	vor,}
{8d	{er
=8	=8
8e-	be-
8cc	-tet
8bn	sein
8.cc	Spru2-
16e-	-chel
8dn	und
8e-	legt
8cc	sich
8bn	aufs
4cc}	Ohr;}
16r	.
{16cc	{ein
=9	=9
8cc	Geist-
8a	-lein,
16r	.
16cc	ein
8cc	Hex-
8a	-lein,
16r	.
16cc	so
8b-	luf-
8cc	-ti-
8dd	-ge
4ee-}	Wicht',}
{8ee-	{sie
=10	=10
8ee-	klo-
8cc	-pfen
8ee-	ihm
8dd	wohl,
8g	doch
8b-	er
8a-	ant-
8cc	-wor-
8f#	-tet
4.g}	nicht.}
=12	=12
2.r	.
4r	.
8r	.
4r	.
{8c#	{Ein-
=13	=13
8d	-mal
8a	doch,
8g#	da
8.a	ward
16d	es
8d	ihm
8d	wirk-
8a	-lich
8g#	zu
(b-q	bunt:
4a)}	|}
{8d	{es
=14	=14
8e-	kno-
8b-	-pert
8a	am
8.b-	La-
16e-	-den,
8d	es
8e-	win-
8b-	-selt
8a	der
4b-}	Hund;}
{8b-	{nun
=15	=15
8b-	zie-
8g	-het
8b-	mein
8b-	Scha2-
8g	-fer
8b-	den
8a-	Rie-
8b-	-gel
16r	.
16cc	ei
8d-;}	schau!}
8r;	.
16r	.
{16d-	{da
=16	=16
8d-	ste-
8cc	-hen
8bn	zwei
8b-	Sto2r-
8c	-che,
16r	.
16c	der
8d-	Mann
8cc	und
8bn	die
4.b-}	Frau.}
=17	=17
2.r	.
4r	.
8r	.
4r	.
{8f	{Das
=18	=18
8f	Pa2r-
8dd	-chen,
8cc#	es
8.dd	ma-
16f	-chet
8en	ein
8f	scho2n
8d	Kom-
8cc#	-pli-
(ee-q	-ment,
4dd)}	|}
{8f#	{es
=19	=19
8g	mo2ch-
8ee	-te
8dd	gern
8.ee	re-
16g	-den,
8f#	ach,
8g	wenn
8ee-	es
8dd	nur
8ee-;}	ko2nnt!}
8r	.
{8dd	{Was
=20	=20
8dd-	will
8cc	mir
8b-	das
8a	Zie-
8cc	-fer?
16r	.
16ee-	ist
8dd-	so
8cc	was
8b-	er-
(aq	-ho2rt?
8ff);}	|}
8r	.
{8e-	{Doch
=21	=21
8d-	ist
8e-	mir
8f	wohl
8.g-	fro2h-
16a-	-li-
8b-	-che
8b-	Bot-
8an	-schaft
8gn	be-
4.cc}	-schert.}
=23	=23
2.r	.
4r	.
8r	.
4r	.
{8e-	{Ihr
=24	=24
8dd	seid
8dd	wohl
8en	da-
8f#	-hin-
8f#	-ten
8g	zu
8g#	Hau-
8bn	-se
8a	am
4dd;}	Rhein?}
{8d	{Ihr
=25	=25
8e-	habt
8e-	wohl
8f	mein
8g	Ma2-
8g	-del
8a-	ge-
8an	-bis-
8cc	-sen
8b-	ins
4ee-;}	Bein?}
{8ddn	{nun
=26	=26
8.cc#	wei-
16cc#	-net
8ee-	das
8dd	Kind
8ee-	und
8dd	die
8.cc#	Mut-
16cc#	-ter
8ee-	noch
4dd}	mehr,}
{8dd	{sie
=27	=27
8cc#	wu2n-
8cc#	-schet
8dd	den
8cc#	Herz-
(eenq	-al-
8.dd)	|
16cc#	-ler-
8cc#	-lieb-
8bn	-sten
8a	sich
4.een}	her,}
=28	=28
2.r	.
4r	.
8r	.
4r	.
{8en	{und
=29	=29
8en	wu2ns-
8en	-chet
8f#	da-
8.g#	-ne-
16g#	-ben
8a	die
8a#	Tau-
8cc#	-fe
8bn	be-
4een;}	-stellt:}
{8en	{ein
=30	=30
8fn	La2mm-
8fn	-lein,
16r	.
16g	ein
8a	Wu2rst-
8a	-lien,
16r	.
16b-	ein
8bn	Beu-
8dd	-te-
8cc	-lien
4ff}	Geld?}
{8een	{so
=31	=31
8ee-	sagt
8dd	nur,
16r	.
16cc	ich
8b-	ka2m'
8g	in
8b-	zwei
8cc	Tag
8dd	o-
8ee-	-der
4ff}	drei,}
{8dd	{und
=32	=32
8ff	gru2sst
8.een	mir
16dd	mein
8.dd	Bu2-
16a	-bel
8a	und
8a	ru2hrt
8een	ihm
8a	den
4ff#}	Brei!}
8r	.
=33	=33
2.r	.
4r	.
8r	.
4r	.
{8een	{Doch
=34	=34
8e-	halt!
16r	.
16e-	wa-
8f	-rum
8g	stellt
8g	ihr
8a	zu
8b-	Zwei-
8a	-en
8g	euch
8dd;}	ein?}
8r;	.
{8dd	{es
=35	=35
8dd	wer-
8g	-den
16r	.
16a	doch,
16r	.
16b-	hoff'
16a	ich,
16r;	.
16g	nicht
16r;	.
8ee-	Zwil-
8dd	-lin-
16cc#	-ge
16r	.
4dd}	sein?}
16r	.
{16dd	{Da
=36	=36
8ee-	klap-
8cc	-pern
8ee-	die
8dd	Sto2r-
8b-	-che
8dd	im
8cc	lus-
8dd	-tig-
8ee-	-sten
4ff}	Ton,}
{8ff	{sie
=37	=37
8gg	ni-
8ee-	-cken
8gg	und
8dd	kni-
8ff	-xen
8dd	und
8ee-	flie-
8dd	-gen
8cc	da-
4ff}	-von}
{8ff	{sie
=38	=38
8gg	ni-
8ee-	-cken
8gg	und
8ff	kni-
8dd	-xen
8b-	und
4.ff	flie-
4ff	-gen
8ff	da-
=39	=39
[2.bb-	-von.
4.bb-_	|
8bb-]}	|}
8r	.
8r	.
*-	*-
